icons/cloud-chevron-right.svg

<svg xmlns="http://www.w3.org/2000/svg" width="24" height="24" viewBox="0 0 24 24">
  <path d="M12.5,3 C16.918278,3 20.5,6.581722 20.5,11 C20.5,11.1204206 20.4973322,11.2405319 20.4920144,11.3602705 L20.4920144,11.3602705 L20.472,11.654 L20.5287365,11.6859719 C21.9683651,12.5292172 22.9183208,14.0574067 22.9949844,15.7749408 L22.9949844,15.7749408 L23,16 C23,18.6686219 20.9044736,20.8633628 18.2241536,20.9948042 L18.2241536,20.9948042 L18,21 L6.5,21 C6.38859112,21 6.28147754,20.9817932 6.18145173,20.9482064 L6.18145173,20.9482064 L6.166,20.942 L5.94889404,20.9081606 C3.19270368,20.4215684 1.11197825,18.064907 1.0043751,15.2308104 L1.0043751,15.2308104 L1,15 C1,12.5890868 2.43448394,10.4577805 4.56984355,9.51249345 L4.56984355,9.51249345 L4.646,9.48 L4.66919046,9.36089212 C5.4117318,5.78500472 8.52762508,3.12063681 12.2455902,3.00398632 L12.2455902,3.00398632 Z M11.6128994,9.20970461 C11.2206082,8.90467972 10.6533772,8.93240926 10.2928932,9.29289322 L10.2928932,9.29289322 L10.2097046,9.38710056 C9.90467972,9.77939176 9.93240926,10.3466228 10.2928932,10.7071068 L10.2928932,10.7071068 L12.585,13 L10.2928932,15.2928932 L10.2097046,15.3871006 C9.90467972,15.7793918 9.93240926,16.3466228 10.2928932,16.7071068 C10.6834175,17.0976311 11.3165825,17.0976311 11.7071068,16.7071068 L11.7071068,16.7071068 L14.7071068,13.7071068 L14.7902954,13.6128994 C15.0953203,13.2206082 15.0675907,12.6533772 14.7071068,12.2928932 L14.7071068,12.2928932 L11.7071068,9.29289322 Z"/>
</svg>

<svg xmlns="http://www.w3.org/2000/svg" viewBox="0 0 24 24">
  <path d="M12.5 3a8 8 0 0 1 8 8.36l-.03.3.06.03a5 5 0 0 1 2.46 4.08L23 16a5 5 0 0 1-4.78 5H6.5a1 1 0 0 1-.32-.05h-.01l-.22-.04A6 6 0 0 1 1 15.23V15a6 6 0 0 1 3.57-5.49l.08-.03.02-.12A8 8 0 0 1 12.25 3zm-.89 6.21a1 1 0 0 0-1.32.08l-.08.1a1 1 0 0 0 .08 1.32L12.6 13l-2.3 2.3-.08.09a1 1 0 0 0 1.5 1.32l3-3 .08-.1a1 1 0 0 0-.08-1.32l-3-3z"/>
</svg>
